X: 19441
T: Jackson's
R: jig
M: 6/8
K: Gmajor
dc|:BAG Bcd|edc efg|dcB gdB|A3 ABc|
BAG Bcd|edc efg|dcB gdB|cAF G2:|
f|g3 bag|fed efg|dcB gdB|A3 ABd|
g3 bag|fed efg|dcB gdB|cAF GBd|
g3 bag|fed efg|dcB gdB|ABA ABc|
BAG Bcd|e2d efg|dcB gdB|cAF G2||

